**harm	**harte	**timestamp	**phrase	**leadinstrument	**kern
*M4/4	*M4/4	*	*	*	*
*C:	*C:	*	*	*	*C:
1r;	N	0	.	r	1r;
=1	=1	=1	=1	=1	=1
*>A_intro	*>A_intro	*>A_intro	*>A_intro	*>A_intro	*>A_intro
1I	C:maj	0.302	newline	bass	1C 1e 1g
=2	=2	=2	=2	=2	=2
1I	C:maj	2.65	.	bass	1C 1e 1g
=3	=3	=3	=3	=3	=3
1I	C:maj	4.998	.	bass	1C 1e 1g
=4	=4	=4	=4	=4	=4
1I	C:maj	7.346	.	bass	1C 1e 1g
=5	=5	=5	=5	=5	=5
*>A_verse	*>A_verse	*>A_verse	*>A_verse	*>A_verse	*>A_verse
1I	C:maj	9.695	newline	voice	1C 1e 1g
=6	=6	=6	=6	=6	=6
1I	C:maj	12.002	.	voice	1C 1e 1g
=7	=7	=7	=7	=7	=7
1ii	D:min	14.31	.	voice	1D 1f 1a
=8	=8	=8	=8	=8	=8
1ii	D:min	16.618	.	voice	1D 1f 1a
=9	=9	=9	=9	=9	=9
1IV	F:maj	18.925	.	voice	1F 1a 1cc
=10	=10	=10	=10	=10	=10
1V	G:maj	21.233	.	voice	1G 1b 1dd
=11	=11	=11	=11	=11	=11
1V	G:maj	23.541	.	voice	1G 1b 1dd
=12	=12	=12	=12	=12	=12
1I	C:maj	25.849	.	voice	1C 1e 1g
=13	=13	=13	=13	=13	=13
1I	C:maj	28.156	newline	voice	1C 1e 1g
=14	=14	=14	=14	=14	=14
1I	C:maj	30.454	.	voice	1C 1e 1g
=15	=15	=15	=15	=15	=15
1ii	D:min	32.752	.	voice	1D 1f 1a
=16	=16	=16	=16	=16	=16
1ii	D:min	35.049	.	voice	1D 1f 1a
=17	=17	=17	=17	=17	=17
1IV	F:maj	37.347	.	voice	1F 1a 1cc
=18	=18	=18	=18	=18	=18
1V	G:maj	39.645	.	voice	1G 1b 1dd
=19	=19	=19	=19	=19	=19
1V	G:maj	41.942	.	voice	1G 1b 1dd
=20	=20	=20	=20	=20	=20
1I	C:maj	44.24	.	voice	1C 1e 1g
=21	=21	=21	=21	=21	=21
*>B_bridge	*>B_bridge	*>B_bridge	*>B_bridge	*>B_bridge	*>B_bridge
1v7	G:min7	46.538	newline	voice	1G 1b- 1dd 1ff
=22	=22	=22	=22	=22	=22
1Ic	C:maj/5	48.772	.	voice	1c 1e 1G
=23	=23	=23	=23	=23	=23
1-VIIc	B-:maj/5	51.006	.	voice	1b- 1dd 1F
=24	=24	=24	=24	=24	=24
1IV	F:maj	53.24	.	voice	1F 1a 1cc
=25	=25	=25	=25	=25	=25
1V	G:maj	55.475	.	voice	1G 1b 1dd
=26	=26	=26	=26	=26	=26
*>A_verse	*>A_verse	*>A_verse	*>A_verse	*>A_verse	*>A_verse
1I	C:maj	57.709	newline	voice	1C 1e 1g
=27	=27	=27	=27	=27	=27
1I	C:maj	60.002	.	voice	1C 1e 1g
=28	=28	=28	=28	=28	=28
1ii	D:min	62.295	.	voice	1D 1f 1a
=29	=29	=29	=29	=29	=29
1ii	D:min	64.588	.	voice	1D 1f 1a
=30	=30	=30	=30	=30	=30
1IV	F:maj	66.882	.	voice	1F 1a 1cc
=31	=31	=31	=31	=31	=31
1V	G:maj	69.175	.	voice	1G 1b 1dd
=32	=32	=32	=32	=32	=32
1V	G:maj	71.468	.	voice	1G 1b 1dd
=33	=33	=33	=33	=33	=33
1I	C:maj	73.761	.	voice	1C 1e 1g
=34	=34	=34	=34	=34	=34
1I	C:maj	76.054	newline	voice	1C 1e 1g
=35	=35	=35	=35	=35	=35
1I	C:maj	78.357	.	voice	1C 1e 1g
=36	=36	=36	=36	=36	=36
1ii	D:min	80.66	.	voice	1D 1f 1a
=37	=37	=37	=37	=37	=37
1ii	D:min	82.963	.	voice	1D 1f 1a
=38	=38	=38	=38	=38	=38
1IV	F:maj	85.266	.	voice	1F 1a 1cc
=39	=39	=39	=39	=39	=39
1V	G:maj	87.569	.	voice	1G 1b 1dd
=40	=40	=40	=40	=40	=40
1V	G:maj	89.871	.	voice	1G 1b 1dd
=41	=41	=41	=41	=41	=41
*>C_chorus	*>C_chorus	*>C_chorus	*>C_chorus	*>C_chorus	*>C_chorus
2I	C:maj	92.174	->newline	voice	2C 2e 2g
4IVc	F:maj/5	93.315	.	voice	4f 4a 4C
4I	C:maj	93.885	.	voice	4C 4e 4g
=42	=42	=42	=42	=42	=42
4I	C:maj	94.456	.	voice	4C 4e 4g
2IVb	F:maj/3	95.026	.	voice	2f 2A 2cc
4Vb	G:maj/3	96.167	.	voice	4g 4B 4dd
=43	=43	=43	=43	=43	=43
2I	C:maj	96.737	newline	voice	2C 2e 2g
4IVc	F:maj/5	97.786	.	voice	4f 4a 4C
4I	C:maj	98.311	.	voice	4C 4e 4g
=44	=44	=44	=44	=44	=44
4I	C:maj	98.836	.	voice	4C 4e 4g
2ii7	D:min7	99.361	.	voice	2D 2f 2a 2cc
4Ib	C:maj/3	100.41	.	voice	4c 4E 4g
=45	=45	=45	=45	=45	=45
2-VIIc	B-:maj/5	100.935	newline	voice	2b- 2dd 2F
2IV	F:maj	102.024	.	voice	2F 2a 2cc
=46	=46	=46	=46	=46	=46
4IV	F:maj	103.114	.	voice	4F 4a 4cc
2-VIIc	B-:maj/5	103.659	.	voice	2b- 2dd 2F
4IV	F:maj	104.748	.	voice	4F 4a 4cc
=47	=47	=47	=47	=47	=47
2-VIIc	B-:maj/5	105.293	.	voice	2b- 2dd 2F
2IV	F:maj	106.383	.	voice	2F 2a 2cc
=48	=48	=48	=48	=48	=48
4IV	F:maj	107.472	.	voice	4F 4a 4cc
2V	G:maj	108.017	.	voice	2G 2b 2dd
4Vb	G:maj/3	109.107	.	voice	4g 4B 4dd
=49	=49	=49	=49	=49	=49
*>A_instrumental	*>A_instrumental	*>A_instrumental	*>A_instrumental	*>A_instrumental	*>A_instrumental
1I	C:maj	109.651	newline	bass	1C 1e 1g
=50	=50	=50	=50	=50	=50
1I	C:maj	111.937	.	bass	1C 1e 1g
=51	=51	=51	=51	=51	=51
1I	C:maj	114.223	.	bass	1C 1e 1g
=52	=52	=52	=52	=52	=52
1I	C:maj	116.509	.	bass	1C 1e 1g
=53	=53	=53	=53	=53	=53
*>A_verse	*>A_verse	*>A_verse	*>A_verse	*>A_verse	*>A_verse
1I	C:maj	118.795	newline	voice	1C 1e 1g
=54	=54	=54	=54	=54	=54
1I	C:maj	121.054	.	voice	1C 1e 1g
=55	=55	=55	=55	=55	=55
1ii	D:min	123.313	.	voice	1D 1f 1a
=56	=56	=56	=56	=56	=56
1ii	D:min	125.572	.	voice	1D 1f 1a
=57	=57	=57	=57	=57	=57
1IV	F:maj	127.831	.	voice	1F 1a 1cc
=58	=58	=58	=58	=58	=58
1V	G:maj	130.09	.	voice	1G 1b 1dd
=59	=59	=59	=59	=59	=59
1V	G:maj	132.349	.	voice	1G 1b 1dd
=60	=60	=60	=60	=60	=60
1I	C:maj	134.608	.	voice	1C 1e 1g
=61	=61	=61	=61	=61	=61
1I	C:maj	136.867	newline	voice	1C 1e 1g
=62	=62	=62	=62	=62	=62
1I	C:maj	139.14	.	voice	1C 1e 1g
=63	=63	=63	=63	=63	=63
1ii	D:min	141.413	.	voice	1D 1f 1a
=64	=64	=64	=64	=64	=64
1ii	D:min	143.686	.	voice	1D 1f 1a
=65	=65	=65	=65	=65	=65
1IV	F:maj	145.959	.	voice	1F 1a 1cc
=66	=66	=66	=66	=66	=66
1V	G:maj	148.232	.	voice	1G 1b 1dd
=67	=67	=67	=67	=67	=67
1V	G:maj	150.505	.	voice	1G 1b 1dd
=68	=68	=68	=68	=68	=68
1I	C:maj	152.778	.	voice	1C 1e 1g
=69	=69	=69	=69	=69	=69
*>B_bridge	*>B_bridge	*>B_bridge	*>B_bridge	*>B_bridge	*>B_bridge
1v7	G:min7	155.051	newline	voice	1G 1b- 1dd 1ff
=70	=70	=70	=70	=70	=70
1Ic	C:maj/5	157.258	.	voice	1c 1e 1G
=71	=71	=71	=71	=71	=71
1-VIIc	B-:maj/5	159.464	.	voice	1b- 1dd 1F
=72	=72	=72	=72	=72	=72
1IV	F:maj	161.67	.	voice	1F 1a 1cc
=73	=73	=73	=73	=73	=73
1V	G:maj	163.877	.	voice	1G 1b 1dd
=74	=74	=74	=74	=74	=74
*>A_verse	*>A_verse	*>A_verse	*>A_verse	*>A_verse	*>A_verse
1I	C:maj	166.083	newline	voice	1C 1e 1g
=75	=75	=75	=75	=75	=75
1I	C:maj	168.348	.	voice	1C 1e 1g
=76	=76	=76	=76	=76	=76
1ii	D:min	170.612	.	voice	1D 1f 1a
=77	=77	=77	=77	=77	=77
1ii	D:min	172.877	.	voice	1D 1f 1a
=78	=78	=78	=78	=78	=78
1IV	F:maj	175.142	.	voice	1F 1a 1cc
=79	=79	=79	=79	=79	=79
1V	G:maj	177.406	.	voice	1G 1b 1dd
=80	=80	=80	=80	=80	=80
1V	G:maj	179.671	.	voice	1G 1b 1dd
=81	=81	=81	=81	=81	=81
1I	C:maj	181.936	.	voice	1C 1e 1g
=82	=82	=82	=82	=82	=82
1I	C:maj	184.2	newline	voice	1C 1e 1g
=83	=83	=83	=83	=83	=83
1I	C:maj	186.442	.	voice	1C 1e 1g
=84	=84	=84	=84	=84	=84
1ii	D:min	188.683	.	voice	1D 1f 1a
=85	=85	=85	=85	=85	=85
1ii	D:min	190.925	.	voice	1D 1f 1a
=86	=86	=86	=86	=86	=86
1IV	F:maj	193.167	.	voice	1F 1a 1cc
=87	=87	=87	=87	=87	=87
1V	G:maj	195.408	.	voice	1G 1b 1dd
=88	=88	=88	=88	=88	=88
1V	G:maj	197.65	.	voice	1G 1b 1dd
=89	=89	=89	=89	=89	=89
*>C_chorus	*>C_chorus	*>C_chorus	*>C_chorus	*>C_chorus	*>C_chorus
2I	C:maj	199.891	->newline	voice	2C 2e 2g
4IVc	F:maj/5	200.991	.	voice	4f 4a 4C
4I	C:maj	201.54	.	voice	4C 4e 4g
=90	=90	=90	=90	=90	=90
4I	C:maj	202.09	.	voice	4C 4e 4g
2IVb	F:maj/3	202.64	.	voice	2f 2A 2cc
4Vb	G:maj/3	203.739	.	voice	4g 4B 4dd
=91	=91	=91	=91	=91	=91
2I	C:maj	204.288	newline	voice	2C 2e 2g
4IVc	F:maj/5	205.379	.	voice	4f 4a 4C
4I	C:maj	205.925	.	voice	4C 4e 4g
=92	=92	=92	=92	=92	=92
4I	C:maj	206.47	.	voice	4C 4e 4g
2ii7	D:min7	207.016	.	voice	2D 2f 2a 2cc
4Ib	C:maj/3	208.106	.	voice	4c 4E 4g
=93	=93	=93	=93	=93	=93
2-VIIc	B-:maj/5	208.652	newline	voice	2b- 2dd 2F
2IV	F:maj	209.734	.	voice	2F 2a 2cc
=94	=94	=94	=94	=94	=94
4IV	F:maj	210.817	.	voice	4F 4a 4cc
2-VIIc	B-:maj/5	211.358	.	voice	2b- 2dd 2F
4IV	F:maj	212.441	.	voice	4F 4a 4cc
=95	=95	=95	=95	=95	=95
2-VIIc	B-:maj/5	212.982	newline	voice	2b- 2dd 2F
2IV	F:maj	214.063	.	voice	2F 2a 2cc
=96	=96	=96	=96	=96	=96
4IV	F:maj	215.145	.	voice	4F 4a 4cc
2V	G:maj	215.685	.	voice	2G 2b 2dd
4Vb	G:maj/3	216.767	.	voice	4g 4B 4dd
=97	=97	=97	=97	=97	=97
2I	C:maj	217.307	newline	voice	2C 2e 2g
4IVc	F:maj/5	218.401	.	voice	4f 4a 4C
4I	C:maj	218.948	.	voice	4C 4e 4g
=98	=98	=98	=98	=98	=98
4I	C:maj	219.495	.	voice	4C 4e 4g
2IVb	F:maj/3	220.042	.	voice	2f 2A 2cc
4Vb	G:maj/3	221.136	.	voice	4g 4B 4dd
=99	=99	=99	=99	=99	=99
2I	C:maj	221.683	newline	voice	2C 2e 2g
4IVc	F:maj/5	222.733	.	voice	4f 4a 4C
4I	C:maj	223.258	.	voice	4C 4e 4g
=100	=100	=100	=100	=100	=100
4I	C:maj	223.783	.	voice	4C 4e 4g
2ii7	D:min7	224.308	.	voice	2D 2f 2a 2cc
4Ib	C:maj/3	225.358	.	voice	4c 4E 4g
=101	=101	=101	=101	=101	=101
*>D_trans	*>D_trans	*>D_trans	*>D_trans	*>D_trans	*>D_trans
1v7	G:min7	225.883	newline	voice	1G 1b- 1dd 1ff
=102	=102	=102	=102	=102	=102
1Ic	C:maj/5	228.068	.	voice	1c 1e 1G
=103	=103	=103	=103	=103	=103
1-VIIc	B-:maj/5	230.253	.	voice	1b- 1dd 1F
=104	=104	=104	=104	=104	=104
1IV	F:maj	232.438	.	voice	1F 1a 1cc
=105	=105	=105	=105	=105	=105
1V	G:maj	234.622	.	voice	1G 1b 1dd
=106	=106	=106	=106	=106	=106
1r	N	236.807	.	voice	1r
=107	=107	=107	=107	=107	=107
*>A_verse	*>A_verse	*>A_verse	*>A_verse	*>A_verse	*>A_verse
1I	C:maj	238.992	newline	voice	1C 1e 1g
=108	=108	=108	=108	=108	=108
1I	C:maj	241.239	.	voice	1C 1e 1g
=109	=109	=109	=109	=109	=109
1ii	D:min	243.485	.	voice	1D 1f 1a
=110	=110	=110	=110	=110	=110
1ii	D:min	245.732	.	voice	1D 1f 1a
=111	=111	=111	=111	=111	=111
1IV	F:maj	247.978	.	voice	1F 1a 1cc
=112	=112	=112	=112	=112	=112
1V	G:maj	250.225	.	voice	1G 1b 1dd
=113	=113	=113	=113	=113	=113
1V	G:maj	252.472	.	voice	1G 1b 1dd
=114	=114	=114	=114	=114	=114
1I	C:maj	254.718	.	voice	1C 1e 1g
=115	=115	=115	=115	=115	=115
1I	C:maj	256.965	newline	voice	1C 1e 1g
=116	=116	=116	=116	=116	=116
1I	C:maj	259.181	.	voice	1C 1e 1g
=117	=117	=117	=117	=117	=117
1ii	D:min	261.397	.	voice	1D 1f 1a
=118	=118	=118	=118	=118	=118
1ii	D:min	263.613	.	voice	1D 1f 1a
=119	=119	=119	=119	=119	=119
1IV	F:maj	265.829	.	voice	1F 1a 1cc
=120	=120	=120	=120	=120	=120
1V	G:maj	268.045	.	voice	1G 1b 1dd
=121	=121	=121	=121	=121	=121
1V	G:maj	270.261	.	voice	1G 1b 1dd
=122	=122	=122	=122	=122	=122
*>C_chorus	*>C_chorus	*>C_chorus	*>C_chorus	*>C_chorus	*>C_chorus
2I	C:maj	272.477	->newline	voice	2C 2e 2g
4IVc	F:maj/5	273.571	.	voice	4f 4a 4C
4I	C:maj	274.118	.	voice	4C 4e 4g
=123	=123	=123	=123	=123	=123
4I	C:maj	274.665	.	voice	4C 4e 4g
2IVb	F:maj/3	275.212	.	voice	2f 2A 2cc
4Vb	G:maj/3	276.306	.	voice	4g 4B 4dd
=124	=124	=124	=124	=124	=124
2I	C:maj	276.853	newline	voice	2C 2e 2g
4IVc	F:maj/5	277.913	.	voice	4f 4a 4C
4I	C:maj	278.443	.	voice	4C 4e 4g
=125	=125	=125	=125	=125	=125
4I	C:maj	278.973	.	voice	4C 4e 4g
2ii7	D:min7	279.503	.	voice	2D 2f 2a 2cc
4Ib	C:maj/3	280.563	.	voice	4c 4E 4g
=126	=126	=126	=126	=126	=126
2-VIIc	B-:maj/5	281.093	newline	voice	2b- 2dd 2F
2IV	F:maj	282.139	.	voice	2F 2a 2cc
=127	=127	=127	=127	=127	=127
4IV	F:maj	283.185	.	voice	4F 4a 4cc
2-VIIc	B-:maj/5	283.708	.	voice	2b- 2dd 2F
4IV	F:maj	284.755	.	voice	4F 4a 4cc
=128	=128	=128	=128	=128	=128
2-VIIc	B-:maj/5	285.278	newline	voice	2b- 2dd 2F
2IV	F:maj	286.339	.	voice	2F 2a 2cc
=129	=129	=129	=129	=129	=129
4IV	F:maj	287.401	.	voice	4F 4a 4cc
2V	G:maj	287.932	.	voice	2G 2b 2dd
4Vb	G:maj/3	288.994	.	voice	4g 4B 4dd
=130	=130	=130	=130	=130	=130
2I	C:maj	289.525	newline	voice	2C 2e 2g
4IVc	F:maj/5	290.585	.	voice	4f 4a 4C
4I	C:maj	291.115	.	voice	4C 4e 4g
=131	=131	=131	=131	=131	=131
4I	C:maj	291.645	.	voice	4C 4e 4g
2IVb	F:maj/3	292.175	.	voice	2f 2A 2cc
4Vb	G:maj/3	293.235	.	voice	4g 4B 4dd
=132	=132	=132	=132	=132	=132
2I	C:maj	293.765	newline	voice	2C 2e 2g
4IVc	F:maj/5	294.791	.	voice	4f 4a 4C
4I	C:maj	295.304	.	voice	4C 4e 4g
=133	=133	=133	=133	=133	=133
4I	C:maj	295.817	.	voice	4C 4e 4g
2ii7	D:min7	296.33	.	voice	2D 2f 2a 2cc
4Ib	C:maj/3	297.356	.	voice	4c 4E 4g
=134	=134	=134	=134	=134	=134
1V	G:maj	297.869	newline	voice	1G 1b 1dd
=135	=135	=135	=135	=135	=135
1V	G:maj	300.066	.	voice	1G 1b 1dd
=136	=136	=136	=136	=136	=136
*>A_outro	*>A_outro	*>A_outro	*>A_outro	*>A_outro	*>A_outro
1I	C:maj	302.264	newline	bass	1C 1e 1g
=137	=137	=137	=137	=137	=137
1I	C:maj	304.473	.	bass	1C 1e 1g
=138	=138	=138	=138	=138	=138
1I	C:maj	306.682	.	bass	1C 1e 1g
=139	=139	=139	=139	=139	=139
1I	C:maj	308.891	.	bass	1C 1e 1g
1r;	N	318.003	.	r	1r;
1r;	N	318.159	.	r	1r;
*-	*-	*-	*-	*-	*-
!!!OTL: An Innocent Man
!!!COC: Billy Joel
!!!BillboardChartDate: 1984/03/24
!!!BillboardPeak: 10
!!!BillboardWeeksOnChart: 18
!!!SampleTargetRank: 49
!!!SampleActualRank: 51
!!!SampleID#: 0010
!!!RDF**harmony: **recip + pitch class of root + harmonic quality
!!!RDF**harte: Chris Harte's syntax, used by MIREX
!!!RDF**phrase: newline = linebreak in original McGill transcription
!!!RDF**timestamp: McGill audio timestamp in seconds
!!!RDF**leadinstrument: original McGill primary instrumentation annotation
!!!RDT: 2017/01/12/
!!!ENC: Nathaniel Condit-Schultz
!!!EST: Awating manual error checking and editing.
